symbols/web/looks_6/materialsymbolsrounded/looks_6_gradN25_40px.svg

<svg xmlns="http://www.w3.org/2000/svg" height="40" width="40"><path d="M17.875 18.625v-4.25h3.875q.542 0 .917-.396t.375-.937q0-.542-.396-.938-.396-.396-.938-.396h-3.833q-1.042 0-1.833.792-.792.792-.792 1.875v11.25q0 1.083.792 1.875.791.792 1.833.792h4.25q1.042 0 1.833-.792.792-.792.792-1.875V21.25q0-1.083-.792-1.854-.791-.771-1.833-.771Zm0 2.625h4.25v4.375h-4.25Zm-10 13.5q-1.042 0-1.833-.792-.792-.791-.792-1.833V7.875q0-1.042.792-1.833.791-.792 1.833-.792h24.25q1.042 0 1.833.792.792.791.792 1.833v24.25q0 1.042-.792 1.833-.791.792-1.833.792Zm0-2.625h24.25V7.875H7.875v24.25Zm0-24.25v24.25-24.25Z"/></svg>

<svg xmlns="http://www.w3.org/2000/svg" height="40" width="40"><path d="M17.875 18.625V14.375Q17.875 14.375 17.875 14.375Q17.875 14.375 17.875 14.375H21.75Q22.292 14.375 22.667 13.979Q23.042 13.583 23.042 13.042Q23.042 12.5 22.646 12.104Q22.25 11.708 21.708 11.708H17.875Q16.833 11.708 16.042 12.5Q15.25 13.292 15.25 14.375V25.625Q15.25 26.708 16.042 27.5Q16.833 28.292 17.875 28.292H22.125Q23.167 28.292 23.958 27.5Q24.75 26.708 24.75 25.625V21.25Q24.75 20.167 23.958 19.396Q23.167 18.625 22.125 18.625ZM17.875 21.25H22.125Q22.125 21.25 22.125 21.25Q22.125 21.25 22.125 21.25V25.625Q22.125 25.625 22.125 25.625Q22.125 25.625 22.125 25.625H17.875Q17.875 25.625 17.875 25.625Q17.875 25.625 17.875 25.625ZM7.875 34.75Q6.833 34.75 6.042 33.958Q5.25 33.167 5.25 32.125V7.875Q5.25 6.833 6.042 6.042Q6.833 5.25 7.875 5.25H32.125Q33.167 5.25 33.958 6.042Q34.75 6.833 34.75 7.875V32.125Q34.75 33.167 33.958 33.958Q33.167 34.75 32.125 34.75ZM7.875 32.125H32.125Q32.125 32.125 32.125 32.125Q32.125 32.125 32.125 32.125V7.875Q32.125 7.875 32.125 7.875Q32.125 7.875 32.125 7.875H7.875Q7.875 7.875 7.875 7.875Q7.875 7.875 7.875 7.875V32.125Q7.875 32.125 7.875 32.125Q7.875 32.125 7.875 32.125ZM7.875 7.875Q7.875 7.875 7.875 7.875Q7.875 7.875 7.875 7.875V32.125Q7.875 32.125 7.875 32.125Q7.875 32.125 7.875 32.125Q7.875 32.125 7.875 32.125Q7.875 32.125 7.875 32.125V7.875Q7.875 7.875 7.875 7.875Q7.875 7.875 7.875 7.875Z"/></svg>
